dist/img/partners/6.svg

<svg width="136" height="58" viewBox="0 0 136 58" fill="none" xmlns="http://www.w3.org/2000/svg">
<path d="M22.084 13.8081V30.0401H11.75V36.9721H34.277V13.8081H22.084ZM49.678 20.7391H54.918V30.0401H49.678V20.7391ZM37.485 36.9721H67.108V13.8081H37.485V36.9721ZM70.318 13.8081V27.7951H87.407V30.2981H70.318V36.9711H99.598V22.9841H82.524V20.4831H102.805V36.9711H114.998V20.7391H124.251V13.8081H70.318Z" fill="#003C89"/>
<path d="M124.251 41.7861H11.75V44.1921H124.251V41.7861Z" fill="#ED7D04"/>
</svg>

<svg width="136" height="58" viewBox="0 0 136 58" fill="none" xmlns="http://www.w3.org/2000/svg"><path d="M22.084 13.808V30.04H11.75v6.932h22.527V13.808H22.084zm27.594 6.931h5.24v9.301h-5.24v-9.3zM37.485 36.972h29.623V13.808H37.485v23.164zm32.833-23.164v13.987h17.089v2.503H70.318v6.673h29.28V22.984H82.524v-2.5h20.281V36.97h12.193V20.74h9.253v-6.93H70.318z" fill="#003C89"/><path d="M124.251 41.786H11.75v2.406h112.501v-2.406z" fill="#ED7D04"/></svg>
